Icons/svg/speaker.svg

<svg xmlns="http://www.w3.org/2000/svg" width="425.2" height="430" viewBox="0 0 425.2 430"><g fill="#323232"><path d="M216.2.9c-5.9-2.2-12.5-.5-16.6 4.3l-95.5 110.8h-104.1v198h104.1l95.5 110.8c2.9 3.4 7.1 5.2 11.4 5.2 1.7 0 3.5-.3 5.2-.9 5.9-2.2 9.8-7.8 9.8-14.1v-400c0-6.3-3.9-11.9-9.8-14.1zm-186.2 145.1h66v138h-66v-138zm165 228.6l-69-81.2v-156.8l69-81.2v319.2zM260.1 385.1c-8.3 0-15.1-6.8-15.1-15.1s6.8-15.1 15.1-15.1c74.4 0 134.9-60.5 134.9-134.9s-60.5-134.9-134.9-134.9c-8.3 0-15.1-6.8-15.1-15.1s6.8-15.1 15.1-15.1c91 0 165.1 74.1 165.1 165.1s-74.1 165.1-165.1 165.1zM268.1 322c-8.3 0-15-6.7-15-15s6.7-15 15-15c35.8 0 65-29.2 65-65v-14c0-35.8-29.2-65-65-65-8.3 0-15-6.7-15-15s6.7-15 15-15c52.4 0 95 42.6 95 95v14c0 52.4-42.6 95-95 95z"/></g></svg>

<?xml version="1.0" encoding="utf-8"?>
<!-- Generator: Adobe Illustrator 18.1.1, SVG Export Plug-In . SVG Version: 6.00 Build 0)  -->
<!DOCTYPE svg PUBLIC "-//W3C//DTD SVG 1.1//EN" "http://www.w3.org/Graphics/SVG/1.1/DTD/svg11.dtd">
<svg version="1.1" id="Layer_1" xmlns="http://www.w3.org/2000/svg" xmlns:xlink="http://www.w3.org/1999/xlink" x="0px" y="0px"
	 viewBox="0 0 425.2 430" enable-background="new 0 0 425.2 430" xml:space="preserve">
<g>
	<path fill="#323232" d="M216.2,0.9c-5.9-2.2-12.5-0.5-16.6,4.3L104.1,116H0v198h104.1l95.5,110.8c2.9,3.4,7.1,5.2,11.4,5.2
		c1.7,0,3.5-0.3,5.2-0.9c5.9-2.2,9.8-7.8,9.8-14.1V15C226,8.7,222.1,3.1,216.2,0.9z M30,146h66v138H30V146z M195,374.6l-69-81.2
		V136.6l69-81.2V374.6z"/>
	<path fill="#323232" d="M260.1,385.1c-8.3,0-15.1-6.8-15.1-15.1s6.8-15.1,15.1-15.1c74.4,0,134.9-60.5,134.9-134.9
		S334.5,85.1,260.1,85.1c-8.3,0-15.1-6.8-15.1-15.1s6.8-15.1,15.1-15.1c91,0,165.1,74.1,165.1,165.1S351.1,385.1,260.1,385.1z"/>
	<path fill="#323232" d="M268.1,322c-8.3,0-15-6.7-15-15s6.7-15,15-15c35.8,0,65-29.2,65-65v-14c0-35.8-29.2-65-65-65
		c-8.3,0-15-6.7-15-15s6.7-15,15-15c52.4,0,95,42.6,95,95v14C363.1,279.4,320.5,322,268.1,322z"/>
</g>
<g>
</g>
<g>
</g>
<g>
</g>
<g>
</g>
<g>
</g>
<g>
</g>
<g>
</g>
<g>
</g>
<g>
</g>
<g>
</g>
<g>
</g>
<g>
</g>
<g>
</g>
<g>
</g>
<g>
</g>
</svg>
